cached_logos/covid-watch.svg

<svg xmlns="http://www.w3.org/2000/svg" role="img" viewBox="-5.30 -5.30 275.34 54.34"><title>Covid Watch logo</title><path fill="#2C58B1" d="M42.7154 24.1826c-.54.4209-1.2133.6339-1.8972.6001a2.85639 2.85639 0 0 1-1.8287-.7843c-.591-.5674-1.1905-1.1113-1.9957-1.3576-1.2997-.3983-2.5845-.1777-3.8158.2441l-.0985.0364a.85658.85658 0 0 0-.5246.6788 10.72207 10.72207 0 0 1-1.9015 4.651.85646.85646 0 0 0-.1552.3612.85467.85467 0 0 0 .0225.3925c.0704.2271.172.4432.3019.6424a11.3059 11.3059 0 0 0 1.334 1.713c.8715.9037 2 1.152 3.212 1.1628a2.86663 2.86663 0 0 1 1.5858.4763 2.86706 2.86706 0 0 1 1.2354 2.9198 2.86646 2.86646 0 0 1-.7624 1.4699 2.86664 2.86664 0 0 1-1.4478.8032 2.86675 2.86675 0 0 1-1.6506-.1312 2.86742 2.86742 0 0 1-1.3028-1.0219 2.8679 2.8679 0 0 1-.5206-1.5719c-.0171-.8201-.0556-1.6295-.4496-2.3704-.6424-1.2012-1.7024-1.955-2.8694-2.5267l-.0235-.0107a.85588.85588 0 0 0-.4506-.0799.8568.8568 0 0 0-.4274.1634 10.70628 10.70628 0 0 1-4.6894 1.9614.87708.87708 0 0 0-.3784.1604.87721.87721 0 0 0-.264.315 2.56733 2.56733 0 0 0-.2141.6081 11.36523 11.36523 0 0 0-.2634 2.1413c-.0236 1.2548.5995 2.227 1.4561 3.0985a2.86747 2.86747 0 0 1 .6318 3.1067 2.86693 2.86693 0 0 1-1.0386 1.2894 2.86617 2.86617 0 0 1-1.5782.5003 2.86643 2.86643 0 0 1-1.5917-.4556 2.86762 2.86762 0 0 1-1.0745-1.2597 2.86696 2.86696 0 0 1-.1988-1.6437 2.86713 2.86713 0 0 1 .7429-1.4796c.5675-.591 1.1135-1.1906 1.3598-1.9957.3961-1.2998.1756-2.5845-.2441-3.8158v-.015a.85637.85637 0 0 0-.2677-.3762.85648.85648 0 0 0-.424-.1827 10.70643 10.70643 0 0 1-4.6787-1.9421.87842.87842 0 0 0-.3829-.1601.87835.87835 0 0 0-.4137.0337c-.2085.0709-.4071.168-.591.2891-.612.3894-1.1856.836-1.713 1.334-.9037.8716-1.1521 2-1.1628 3.212a2.86523 2.86523 0 0 1-.4768 1.5838c-.3112.4696-.7539.837-1.27283 1.0563a2.8646 2.8646 0 0 1-1.64454.1767 2.86411 2.86411 0 0 1-1.46819-.7617 2.86478 2.86478 0 0 1-.80253-1.4462 2.86519 2.86519 0 0 1 .13061-1.6489 2.86561 2.86561 0 0 1 1.02021-1.3019 2.86546 2.86546 0 0 1 1.5698-.521c.82012-.0171 1.62954-.0557 2.37257-.4497 1.2013-.6424 1.9529-1.7023 2.5267-2.8693 0-.0129.0107-.0236.015-.0343a.85633.85633 0 0 0 .0797-.448.85742.85742 0 0 0-.161-.4257 10.70558 10.70558 0 0 1-1.9272-4.6573.87362.87362 0 0 0-.4283-.6274 2.51517 2.51517 0 0 0-.7023-.257 11.35722 11.35722 0 0 0-2.14133-.2633c-1.25481-.0236-2.2291.5995-3.10061 1.4561a2.86662 2.86662 0 0 1-1.45849.7835 2.86733 2.86733 0 0 1-1.64854-.1533 2.86773 2.86773 0 0 1-1.2889-1.0392 2.86753 2.86753 0 0 1-.49947-1.5786 2.86745 2.86745 0 0 1 .4565-1.5915 2.86741 2.86741 0 0 1 1.26025-1.0737 2.86706 2.86706 0 0 1 1.64378-.198c.55548.097 1.07.3557 1.4792.7437.591.5675 1.19056 1.1135 1.99569 1.3598 1.29978.3961 2.58456.1755 3.81362-.2442.0407-.0149.0814-.0278.1178-.0449a.85569.85569 0 0 0 .3502-.2658.85601.85601 0 0 0 .1723-.4044 10.72813 10.72813 0 0 1 1.9079-4.5782.85586.85586 0 0 0 .1529-.3492.85674.85674 0 0 0-.0137-.3809 2.47583 2.47583 0 0 0-.3319-.7409 11.4258 11.4258 0 0 0-1.3319-1.7131c-.8715-.9036-1.99999-1.152-3.21197-1.1627a2.865 2.865 0 0 1-1.58599-.474 2.86503 2.86503 0 0 1-.47647-4.38758 2.86499 2.86499 0 0 1 1.44728-.80338 2.865 2.865 0 0 1 1.65009.13122A2.86556 2.86556 0 0 1 10.798 6.7845a2.86479 2.86479 0 0 1 .5194 1.57168c.0172.82012.0557 1.62953.4518 2.37252.6424 1.2013 1.7131 1.9529 2.8694 2.5268.0642.03.1263.0578.1884.0814.133.0485.276.0634.4161.0432a.85463.85463 0 0 0 .3869-.1589c1.3463-.974 2.9015-1.62 4.5417-1.8865a.85615.85615 0 0 0 .3323-.1264.8566.8566 0 0 0 .2523-.2504c.1598-.2524.2722-.5318.3319-.8244a11.34936 11.34936 0 0 0 .2634-2.14134c.0235-1.25481-.6017-2.2291-1.4561-3.10061a2.86497 2.86497 0 0 1-.7826-1.45742A2.86473 2.86473 0 0 1 20.3048.49928 2.86487 2.86487 0 0 1 21.882.00026a2.8651 2.8651 0 0 1 2.8612 3.3575 2.86552 2.86552 0 0 1-.7428 1.47811c-.5675.591-1.1114 1.19057-1.3576 1.9957-.3983 1.29977-.1777 2.58456.2441 3.81363.0229.073.05.1445.0814.2142.0615.1271.1536.237.2679.3199.1143.083.2474.1364.3873.1554 1.6396.2615 3.196.9008 4.546 1.8673a.87484.87484 0 0 0 .3457.148.87325.87325 0 0 0 .3759-.011c.2701-.0707.5269-.185.7602-.3383.6124-.388 1.1861-.834 1.713-1.3319.9037-.8715 1.1521-2 1.1628-3.21198a2.86643 2.86643 0 0 1 .4763-1.58579 2.86712 2.86712 0 0 1 4.3897-.47308c.4043.39313.6837.89677.8032 1.44789a2.86671 2.86671 0 0 1-.1312 1.65057 2.86745 2.86745 0 0 1-1.0219 1.30279 2.86693 2.86693 0 0 1-1.5718.5205c-.8202.0172-1.6296.0557-2.3705.4519-1.2012.6424-1.955 1.713-2.5267 2.8693-.0278.0578-.0535.1156-.075.1735a.85782.85782 0 0 0-.0412.4166.85522.85522 0 0 0 .1612.3863 10.70661 10.70661 0 0 1 1.9271 4.576.87004.87004 0 0 0 .1437.3582.87055.87055 0 0 0 .2846.2607c.2264.1257.4703.2166.7238.2698.7038.1554 1.4208.2436 2.1413.2633 1.2548.0236 2.2269-.6017 3.0984-1.4561a2.8685 2.8685 0 0 1 .9715-.6646 2.86873 2.86873 0 0 1 1.1567-.2182c.3965.008.787.0982 1.1469.2649.3599.1666.6812.4061.9438.7033.2626.2972.4607.6457.5817 1.0233.121.3777.1624.7763.1215 1.1708a2.868 2.868 0 0 1-.3591 1.121c-.196.3448-.4613.6452-.7793.8822l-.0064.0107zm31.2117 2.7837a6.6663 6.6663 0 0 1-1.8501 1.1563 7.05332 7.05332 0 0 1-2.9143.531 6.77004 6.77004 0 0 1-2.6445-.4903 5.69013 5.69013 0 0 1-2.0086-1.4026 6.23061 6.23061 0 0 1-1.2848-2.182 8.3711 8.3711 0 0 1-.4475-2.8051 7.14079 7.14079 0 0 1 .4903-2.6745 6.9405 6.9405 0 0 1 1.3448-2.152 6.06664 6.06664 0 0 1 1.9657-1.4325 5.56772 5.56772 0 0 1 2.3276-.5054 6.1437 6.1437 0 0 1 2.7601.5932c.6766.3195 1.3218.7016 1.9272 1.1413l1.6467-3.9593a13.08216 13.08216 0 0 0-2.7002-1.2355 11.42012 11.42012 0 0 0-3.788-.5782 10.70745 10.70745 0 0 0-4.2205.7923 9.48306 9.48306 0 0 0-3.2805 2.2848 10.17148 10.17148 0 0 0-2.1113 3.4967 12.94409 12.94409 0 0 0-.7366 4.4518c-.0083 1.3889.237 2.7676.7238 4.0685a10.23658 10.23658 0 0 0 2.0942 3.3811 9.8637 9.8637 0 0 0 3.3532 2.3276c1.4265.5896 2.9533.8986 4.4968.9101a10.5651 10.5651 0 0 0 2.9978-.3469 11.777 11.777 0 0 0 2.2976-.8566 8.17235 8.17235 0 0 0 1.2848-.7794l-1.7237-3.7344zm5.4624-.8566c1.1032 2.605 3.1766 4.6784 5.7816 5.7816a10.98674 10.98674 0 0 0 8.4131 0 11.23534 11.23534 0 0 0 3.4818-2.3555 10.80348 10.80348 0 0 0 2.3704-3.4539c.5746-1.3323.8666-2.7695.8566-4.2205.006-1.4319-.286-2.8495-.8566-4.1627a11.13389 11.13389 0 0 0-2.3704-3.4839 11.36913 11.36913 0 0 0-3.4818-2.3854 10.6346 10.6346 0 0 0-4.2065-.8673c-1.4466 0-2.878.2951-4.2066.8673a10.9981 10.9981 0 0 0-3.454 2.3854 11.18436 11.18436 0 0 0-2.3276 3.4839 10.49396 10.49396 0 0 0-.8372 4.1627 10.6462 10.6462 0 0 0 .8372 4.2205v.0278zm3.9893-6.9378a6.67827 6.67827 0 0 1 1.3875-2.182 6.3978 6.3978 0 0 1 2.0814-1.4603 6.6195 6.6195 0 0 1 2.5696-.519c.8825 0 1.7562.1764 2.5695.519a6.2245 6.2245 0 0 1 2.0664 1.4603 6.97471 6.97471 0 0 1 1.3876 2.182 7.14568 7.14568 0 0 1 .41 3.941 7.14497 7.14497 0 0 1-1.7526 3.5536 6.12271 6.12271 0 0 1-2.0743 1.476 6.12196 6.12196 0 0 1-2.4953.5047 6.44622 6.44622 0 0 1-2.5681-.5007 6.44721 6.44721 0 0 1-2.1577-1.48c-1.2508-1.2876-1.9433-3.0165-1.9272-4.8115a7.2521 7.2521 0 0 1 .5032-2.6831zm17.8372-7.9785l9.713 22.2696 9.713-22.2696h-4.972l-5.638 14.8307 2.428.4904-6.21-15.3211h-5.034zm23.096 21.276h4.193v-21.276h-4.193v21.276zm17.083 0c1.4.0084 2.79-.2316 4.105-.7088a10.2006 10.2006 0 0 0 3.411-2.0513c.991-.9072 1.784-2.0095 2.328-3.2377.586-1.3439.878-2.7974.856-4.2633-.004-1.346-.221-2.6829-.642-3.9614-.423-1.3081-1.106-2.5172-2.009-3.5546a9.652 9.652 0 0 0-3.623-2.5439c-1.503-.6352-3.324-.9536-5.464-.955h-6.36v21.276h7.398zm-3.212-17.2568h3.411a7.0756 7.0756 0 0 1 1.763.2741c.735.203 1.425.5414 2.036.9979.712.5368 1.287 1.2347 1.677 2.0364.452.8779.679 2.0106.679 3.3982.017.9633-.155 1.9207-.506 2.818-.312.7851-.808 1.484-1.445 2.0385-.656.5563-1.418.9737-2.24 1.227-.935.2932-1.911.4377-2.891.4282h-2.479l-.005-13.2183zm34.227 18.2397l6.128-13.1519-1.927-5.7537-3.959 9.85.664.2891-4.544-13.3511h-4.914l8.552 22.1176zm10.955-.0578l8.214-22.0598h-4.51l-3.901 12.805.751.1157-5.233-12.9207h-4.171l8.85 22.0598zm10.726-.9251l7.342-17.6336-3.036 2.0813 6.128 15.5523h4.857l-9.6-22.1132h-.214l-9.608 22.1132h4.131zm1.126-4.1627h9.165l-1.476-3.5267h-6.383l-1.306 3.5267zm14.079-13.0619h4.972v17.2246h4.191V15.2405h5.175v-4.0471h-14.346l.008 4.0514zm31.884 11.7086c-.549.4844-1.174.8751-1.85 1.1563-.923.3881-1.918.575-2.919.5482-.905.015-1.804-.1517-2.644-.4904a5.7035 5.7035 0 0 1-2.011-1.4025c-.573-.6316-1.01-1.3743-1.285-2.182a8.38681 8.38681 0 0 1-.449-2.8051c-.009-.9148.158-1.8228.492-2.6745a6.9318 6.9318 0 0 1 1.345-2.152 6.07386 6.07386 0 0 1 1.966-1.4326c.729-.334 1.523-.5064 2.325-.5053.955-.0193 1.9.1838 2.762.5931.677.3194 1.322.7016 1.928 1.1414l1.648-3.9593c-.847-.5137-1.75-.9297-2.691-1.2398-1.22-.4047-2.5-.6002-3.786-.5782-1.446-.0236-2.882.2459-4.221.7923-1.243.5198-2.361 1.2987-3.28 2.2848a10.16917 10.16917 0 0 0-2.111 3.4967c-.505 1.4294-.754 2.9362-.737 4.4518-.009 1.3888.236 2.7675.722 4.0685a10.24102 10.24102 0 0 0 2.096 3.3811c.943 1.0012 2.086 1.794 3.353 2.3276 1.427.5899 2.954.8989 4.497.9101 1.011.0284 2.02-.0884 2.998-.3469.794-.2048 1.565-.4918 2.3-.8566.451-.2195.881-.4804 1.284-.7794l-1.732-3.7473zm19.629-15.76V19.78h-9.507v-8.5866h-4.197v21.276h4.191v-8.6423h9.513v8.6423H265v-21.276h-4.191z"/></svg>

<svg xmlns="http://www.w3.org/2000/svg" role="img" viewBox="-5.30 -5.30 275.34 54.34"><title>Covid Watch logo</title><path fill="#2C58B1" d="M42.7154 24.1826C42.1754 24.6035 41.5021 24.8165 40.8182 24.7827C40.1344 24.7489 39.4854 24.4706 38.9895 23.9984C38.3985 23.431 37.799 22.8871 36.9938 22.6408C35.6941 22.2425 34.4093 22.4631 33.178 22.8849L33.0795 22.9213C32.9401 22.9784 32.8182 23.0711 32.7261 23.1903C32.634 23.3095 32.5749 23.4509 32.5549 23.6001C32.2984 25.2792 31.6467 26.8732 30.6534 28.2511C30.5744 28.3578 30.5212 28.4815 30.4982 28.6123C30.4751 28.7431 30.4828 28.8775 30.5207 29.0048C30.5911 29.2319 30.6927 29.448 30.8226 29.6472C31.2113 30.2597 31.658 30.8333 32.1566 31.3602C33.0281 32.2639 34.1566 32.5122 35.3686 32.523C35.9325 32.5223 36.4841 32.688 36.9544 32.9993C37.4246 33.3105 37.7926 33.7535 38.0124 34.2729C38.2321 34.7923 38.2939 35.3649 38.1898 35.9191C38.0858 36.4734 37.8206 36.9847 37.4274 37.389C37.0343 37.7933 36.5307 38.0727 35.9796 38.1922C35.4284 38.3118 34.8543 38.2661 34.329 38.061C33.8037 37.8559 33.3505 37.5004 33.0262 37.0391C32.7019 36.5777 32.5208 36.031 32.5056 35.4672C32.4885 34.6471 32.45 33.8377 32.056 33.0968C31.4136 31.8956 30.3536 31.1418 29.1866 30.5701L29.1631 30.5594C29.0229 30.4924 28.8672 30.4647 28.7125 30.4795C28.5579 30.4942 28.4101 30.5507 28.2851 30.6429C26.9021 31.6637 25.2936 32.3364 23.5957 32.6043C23.4586 32.6271 23.3289 32.682 23.2173 32.7647C23.1056 32.8473 23.0151 32.9553 22.9533 33.0797C22.8567 33.2726 22.7847 33.4769 22.7392 33.6878C22.5837 34.3916 22.4955 35.1086 22.4758 35.8291C22.4522 37.0839 23.0753 38.0561 23.9319 38.9276C24.331 39.3259 24.6038 39.8331 24.7162 40.3857C24.8286 40.9383 24.7755 41.5117 24.5637 42.0343C24.3518 42.5569 23.9906 43.0054 23.5251 43.3237C23.0597 43.6421 22.5107 43.8161 21.9469 43.824C21.383 43.832 20.8294 43.6735 20.3552 43.3684C19.8809 43.0632 19.5072 42.6251 19.2807 42.1087C19.0542 41.5923 18.9851 41.0205 19.0819 40.465C19.1786 39.9095 19.4371 39.3948 19.8248 38.9854C20.3923 38.3944 20.9383 37.7948 21.1846 36.9897C21.5807 35.6899 21.3602 34.4052 20.9405 33.1739V33.1589C20.8874 33.0114 20.7948 32.8812 20.6728 32.7827C20.5509 32.6841 20.4042 32.621 20.2488 32.6C18.5563 32.3362 16.9518 31.6702 15.5701 30.6579C15.4571 30.5747 15.3257 30.5198 15.1872 30.4978C15.0486 30.4758 14.9067 30.4874 14.7735 30.5315C14.565 30.6024 14.3664 30.6995 14.1825 30.8206C13.5705 31.21 12.9969 31.6566 12.4695 32.1546C11.5658 33.0262 11.3174 34.1546 11.3067 35.3666C11.3069 35.9299 11.1411 36.4808 10.8299 36.9504C10.5187 37.42 10.076 37.7874 9.55707 38.0067C9.03819 38.226 8.46617 38.2875 7.91253 38.1834C7.35889 38.0794 6.84821 37.8145 6.44434 37.4217C6.04046 37.029 5.76132 36.526 5.64181 35.9755C5.5223 35.425 5.56773 34.8514 5.77242 34.3266C5.97711 33.8018 6.33197 33.349 6.79263 33.0247C7.2533 32.7005 7.79932 32.5193 8.36243 32.5037C9.18255 32.4866 9.99197 32.448 10.735 32.054C11.9363 31.4116 12.6879 30.3517 13.2617 29.1847C13.2617 29.1718 13.2724 29.1611 13.2767 29.1504C13.3432 29.011 13.3707 28.8562 13.3564 28.7024C13.3421 28.5486 13.2864 28.4015 13.1954 28.2767C12.1915 26.8998 11.5308 25.3031 11.2682 23.6194C11.2486 23.4893 11.2 23.3654 11.1258 23.2567C11.0517 23.1481 10.9539 23.0576 10.8399 22.992C10.6199 22.8718 10.3832 22.7852 10.1376 22.735C9.43379 22.5795 8.71678 22.4913 7.99627 22.4717C6.74146 22.4481 5.76717 23.0712 4.89566 23.9278C4.49713 24.3267 3.98981 24.5993 3.43717 24.7113C2.88453 24.8234 2.3111 24.7701 1.78863 24.558C1.26615 24.3458 0.817827 23.9844 0.499734 23.5188C0.181642 23.0531 0.00790684 22.5041 0.000263506 21.9402C-0.00737983 21.3764 0.151408 20.8228 0.456762 20.3487C0.762117 19.8747 1.20048 19.5012 1.71701 19.275C2.23355 19.0488 2.80531 18.9799 3.36079 19.077C3.91627 19.174 4.43079 19.4327 4.83999 19.8207C5.43099 20.3882 6.03055 20.9342 6.83568 21.1805C8.13546 21.5766 9.42024 21.356 10.6493 20.9363C10.69 20.9214 10.7307 20.9085 10.7671 20.8914C10.905 20.8348 11.0257 20.7432 11.1173 20.6256C11.209 20.5081 11.2683 20.3687 11.2896 20.2212C11.5592 18.567 12.2127 16.9991 13.1975 15.643C13.2741 15.5396 13.3263 15.4202 13.3504 15.2938C13.3745 15.1674 13.3698 15.0372 13.3367 14.9129C13.2676 14.6493 13.1554 14.399 13.0048 14.172C12.6162 13.56 12.1702 12.9864 11.6729 12.4589C10.8014 11.5553 9.67291 11.3069 8.46093 11.2962C7.89715 11.2977 7.34545 11.1328 6.87494 10.8222C6.40442 10.5116 6.036 10.0691 5.81582 9.55008C5.59563 9.03107 5.53347 8.45863 5.63711 7.90445C5.74075 7.35027 6.00559 6.83898 6.39847 6.43462C6.79134 6.03026 7.29478 5.7508 7.84575 5.63124C8.39671 5.51167 8.9707 5.55732 9.49584 5.76246C10.021 5.96761 10.4739 6.32313 10.798 6.7845C11.122 7.24587 11.3027 7.79259 11.3174 8.35618C11.3346 9.1763 11.3731 9.98571 11.7692 10.7287C12.4116 11.93 13.4823 12.6816 14.6386 13.2555C14.7028 13.2855 14.7649 13.3133 14.827 13.3369C14.96 13.3854 15.103 13.4003 15.2431 13.3801C15.3832 13.36 15.5162 13.3054 15.63 13.2212C16.9763 12.2472 18.5315 11.6012 20.1717 11.3347C20.2901 11.3163 20.4033 11.2732 20.504 11.2083C20.6047 11.1434 20.6906 11.0581 20.7563 10.9579C20.9161 10.7055 21.0285 10.4261 21.0882 10.1335C21.2438 9.42968 21.332 8.71267 21.3516 7.99216C21.3751 6.73735 20.7499 5.76306 19.8955 4.89155C19.497 4.49327 19.2248 3.98633 19.1129 3.43413C19.0009 2.88194 19.0543 2.30901 19.2663 1.787C19.4783 1.26499 19.8395 0.817078 20.3048 0.499279C20.77 0.181479 21.3186 0.00790442 21.882 0.000263584C22.4453 -0.00737726 22.9985 0.151255 23.4721 0.45632C23.9458 0.761385 24.319 1.19934 24.5451 1.71541C24.7712 2.23148 24.8401 2.80275 24.7432 3.35777C24.6463 3.91279 24.3879 4.42693 24.0004 4.83587C23.4329 5.42687 22.889 6.02644 22.6428 6.83157C22.2445 8.13134 22.4651 9.41613 22.8869 10.6452C22.9098 10.7182 22.9369 10.7897 22.9683 10.8594C23.0298 10.9865 23.1219 11.0964 23.2362 11.1793C23.3505 11.2623 23.4836 11.3157 23.6235 11.3347C25.2631 11.5962 26.8195 12.2355 28.1695 13.202C28.2726 13.2758 28.3906 13.3263 28.5152 13.35C28.6398 13.3737 28.7681 13.3699 28.8911 13.339C29.1612 13.2683 29.418 13.154 29.6513 13.0007C30.2637 12.6127 30.8374 12.1667 31.3643 11.6688C32.268 10.7973 32.5164 9.6688 32.5271 8.45682C32.5264 7.89289 32.6921 7.34129 33.0034 6.87103C33.3146 6.40078 33.7577 6.03275 34.277 5.813C34.7964 5.59326 35.369 5.53154 35.9233 5.63559C36.4775 5.73963 36.9888 6.00481 37.3931 6.39795C37.7974 6.79108 38.0768 7.29472 38.1963 7.84584C38.3159 8.39696 38.2702 8.9711 38.0651 9.49641C37.86 10.0217 37.5045 10.4749 37.0432 10.7992C36.5818 11.1235 36.0351 11.3046 35.4714 11.3197C34.6512 11.3369 33.8418 11.3754 33.1009 11.7716C31.8997 12.414 31.1459 13.4846 30.5742 14.6409C30.5464 14.6987 30.5207 14.7565 30.4992 14.8144C30.4513 14.9477 30.4371 15.0908 30.458 15.231C30.4789 15.3711 30.5343 15.5039 30.6192 15.6173C31.6113 16.9706 32.2714 18.5381 32.5463 20.1933C32.5668 20.322 32.6159 20.4444 32.69 20.5515C32.7642 20.6586 32.8614 20.7477 32.9746 20.8122C33.201 20.9379 33.4449 21.0288 33.6984 21.082C34.4022 21.2374 35.1192 21.3256 35.8397 21.3453C37.0945 21.3689 38.0666 20.7436 38.9381 19.8892C39.2125 19.6029 39.5433 19.3766 39.9096 19.2246C40.2759 19.0727 40.6698 18.9984 41.0663 19.0064C41.4628 19.0144 41.8533 19.1046 42.2132 19.2713C42.5731 19.4379 42.8944 19.6774 43.157 19.9746C43.4196 20.2718 43.6177 20.6203 43.7387 20.9979C43.8597 21.3756 43.9011 21.7742 43.8602 22.1687C43.8193 22.5632 43.697 22.9449 43.5011 23.2897C43.3051 23.6345 43.0398 23.9349 42.7218 24.1719L42.7154 24.1826ZM73.9271 26.9663C73.3781 27.4507 72.753 27.8414 72.077 28.1226C71.1541 28.5039 70.1607 28.6849 69.1627 28.6536C68.2572 28.6687 67.358 28.5019 66.5182 28.1633C65.7547 27.8471 65.0693 27.3685 64.5096 26.7607C63.9365 26.129 63.4992 25.3863 63.2248 24.5787C62.9169 23.676 62.7656 22.7273 62.7773 21.7736C62.7679 20.8589 62.9344 19.951 63.2676 19.0991C63.5798 18.3052 64.0357 17.5757 64.6124 16.9471C65.1642 16.3418 65.8329 15.8545 66.5781 15.5146C67.3084 15.1802 68.1025 15.0078 68.9057 15.0092C69.8593 14.99 70.8043 15.1931 71.6658 15.6024C72.3424 15.9219 72.9876 16.304 73.593 16.7437L75.2397 12.7844C74.3894 12.2714 73.4835 11.8569 72.5395 11.5489C71.3184 11.1442 70.0377 10.9487 68.7515 10.9707C67.3056 10.9471 65.8699 11.2166 64.531 11.763C63.2876 12.2828 62.1693 13.0617 61.2505 14.0478C60.3175 15.0586 59.5993 16.2482 59.1392 17.5445C58.6349 18.9739 58.3856 20.4807 58.4026 21.9963C58.3943 23.3852 58.6396 24.7639 59.1264 26.0648C59.5967 27.3179 60.3082 28.4666 61.2206 29.4459C62.1638 30.4471 63.306 31.2399 64.5738 31.7735C66.0003 32.3631 67.5271 32.6721 69.0706 32.6836C70.0813 32.712 71.0909 32.5952 72.0684 32.3367C72.862 32.1319 73.632 31.8448 74.366 31.4801C74.8173 31.2603 75.2474 30.9994 75.6508 30.7007L73.9271 26.9663ZM79.3895 26.1097C80.4927 28.7147 82.5661 30.7881 85.1711 31.8913C86.5046 32.444 87.9341 32.7285 89.3777 32.7285C90.8212 32.7285 92.2507 32.444 93.5842 31.8913C94.8827 31.3322 96.0639 30.533 97.066 29.5358C98.0739 28.5502 98.8792 27.3768 99.4364 26.0819C100.011 24.7496 100.303 23.3124 100.293 21.8614C100.299 20.4295 100.007 19.0119 99.4364 17.6987C98.8752 16.3971 98.0707 15.2146 97.066 14.2148C96.0645 13.2093 94.8835 12.4003 93.5842 11.8294C92.2556 11.2572 90.8242 10.9621 89.3777 10.9621C87.9311 10.9621 86.4997 11.2572 85.1711 11.8294C83.8773 12.3954 82.7046 13.2053 81.7171 14.2148C80.7287 15.2191 79.939 16.4011 79.3895 17.6987C78.8297 19.0147 78.5448 20.4313 78.5523 21.8614C78.5412 23.3106 78.8261 24.7467 79.3895 26.0819V26.1097ZM83.3788 19.1719C83.6947 18.3611 84.1661 17.6199 84.7663 16.9899C85.3554 16.3688 86.0632 15.8722 86.8477 15.5296C87.6611 15.187 88.5347 15.0106 89.4173 15.0106C90.2998 15.0106 91.1735 15.187 91.9868 15.5296C92.7683 15.8697 93.4716 16.3668 94.0532 16.9899C94.6477 17.6244 95.1183 18.3644 95.4408 19.1719C95.9462 20.4207 96.0884 21.7869 95.8508 23.1129C95.6133 24.439 95.0057 25.6709 94.0982 26.6665C93.5178 27.2984 92.8111 27.8013 92.0239 28.1425C91.2367 28.4837 90.3866 28.6557 89.5286 28.6472C88.6473 28.6576 87.7733 28.4872 86.9605 28.1465C86.1476 27.8058 85.4133 27.3021 84.8028 26.6665C83.552 25.3789 82.8595 23.65 82.8756 21.855C82.872 20.9368 83.0427 20.0264 83.3788 19.1719ZM101.216 11.1934L110.929 33.463L120.642 11.1934H115.67L110.032 26.0241L112.46 26.5145L106.25 11.1934H101.216ZM124.312 32.4694H128.505V11.1934H124.312V32.4694ZM141.395 32.4694C142.795 32.4778 144.185 32.2378 145.5 31.7606C146.761 31.3073 147.92 30.6102 148.911 29.7093C149.902 28.8021 150.695 27.6998 151.239 26.4716C151.825 25.1277 152.117 23.6742 152.095 22.2083C152.091 20.8623 151.874 19.5254 151.453 18.2469C151.03 16.9388 150.347 15.7297 149.444 14.6923C148.45 13.5754 147.21 12.7045 145.821 12.1484C144.318 11.5132 142.497 11.1948 140.357 11.1934H133.997V32.4694H141.395ZM138.183 15.2126H141.594C142.191 15.2292 142.783 15.3213 143.357 15.4867C144.092 15.6897 144.782 16.0281 145.393 16.4846C146.105 17.0214 146.68 17.7193 147.07 18.521C147.522 19.3989 147.749 20.5316 147.749 21.9192C147.766 22.8825 147.594 23.8399 147.243 24.7372C146.931 25.5223 146.435 26.2212 145.798 26.7757C145.142 27.332 144.38 27.7494 143.558 28.0027C142.623 28.2959 141.647 28.4404 140.667 28.4309H138.188L138.183 15.2126ZM172.41 33.4523L178.538 20.3004L176.611 14.5467L172.652 24.3967L173.316 24.6858L168.772 11.3347H163.858L172.41 33.4523ZM183.365 33.3945L191.579 11.3347H187.069L183.168 24.1397L183.919 24.2554L178.686 11.3347H174.515L183.365 33.3945ZM194.091 32.4694L201.433 14.8358L198.397 16.9171L204.525 32.4694H209.382L199.782 10.3562H199.568L189.96 32.4694H194.091ZM195.217 28.3067H204.382L202.906 24.78H196.523L195.217 28.3067ZM209.296 15.2448H214.268V32.4694H218.459V15.2405H223.634V11.1934H209.288L209.296 15.2448ZM241.18 26.9534C240.631 27.4378 240.006 27.8285 239.33 28.1097C238.407 28.4978 237.412 28.6847 236.411 28.6579C235.506 28.6729 234.607 28.5062 233.767 28.1675C233.003 27.8514 232.317 27.3729 231.756 26.765C231.183 26.1334 230.746 25.3907 230.471 24.583C230.163 23.6804 230.011 22.7317 230.022 21.7779C230.013 20.8631 230.18 19.9551 230.514 19.1034C230.826 18.3095 231.282 17.58 231.859 16.9514C232.411 16.3461 233.08 15.8588 233.825 15.5188C234.554 15.1848 235.348 15.0124 236.15 15.0135C237.105 14.9942 238.05 15.1973 238.912 15.6066C239.589 15.926 240.234 16.3082 240.84 16.748L242.488 12.7887C241.641 12.275 240.738 11.859 239.797 11.5489C238.577 11.1442 237.297 10.9487 236.011 10.9707C234.565 10.9471 233.129 11.2166 231.79 11.763C230.547 12.2828 229.429 13.0617 228.51 14.0478C227.577 15.0586 226.859 16.2482 226.399 17.5445C225.894 18.9739 225.645 20.4807 225.662 21.9963C225.653 23.3851 225.898 24.7638 226.384 26.0648C226.855 27.318 227.567 28.4667 228.48 29.4459C229.423 30.4471 230.566 31.2399 231.833 31.7735C233.26 32.3634 234.787 32.6724 236.33 32.6836C237.341 32.712 238.35 32.5952 239.328 32.3367C240.122 32.1319 240.893 31.8449 241.628 31.4801C242.079 31.2606 242.509 30.9997 242.912 30.7007L241.18 26.9534ZM260.809 11.1934V19.78H251.302V11.1934H247.105V32.4694H251.296V23.8271H260.809V32.4694H265V11.1934H260.809Z"/></svg>
